www/assets/images/test_icons/flags/VI.svg

<svg fill="none" height="15" viewBox="0 0 21 15" width="21" xmlns="http://www.w3.org/2000/svg" xmlns:xlink="http://www.w3.org/1999/xlink"><mask id="a" height="15" maskUnits="userSpaceOnUse" width="21" x="0" y="0"><path d="m19 0h-17c-1.10457 0-2 .89543-2 2v11c0 1.1046.89543 2 2 2h17c1.1046 0 2-.8954 2-2v-11c0-1.10457-.8954-2-2-2z" fill="#fff"/></mask><g mask="url(#a)"><path d="m19 0h-17c-1.10457 0-2 .89543-2 2v11c0 1.1046.89543 2 2 2h17c1.1046 0 2-.8954 2-2v-11c0-1.10457-.8954-2-2-2z" fill="#fff"/><g clip-rule="evenodd" fill-rule="evenodd"><path d="m15.25 9 .75.75-2.25 2.25-.75-.75z" fill="#0081c6"/><path d="m6.75 9-.75.75 2.25 2.25.75-.75z" fill="#369443"/><path d="m7 9h1v1l-2 1z" fill="#f4c53d"/><path d="m3 7h1v3h-1zm14 0h1v3h-1z" fill="#0081c6"/><path d="m11 4v-1h-2v1l1 1v2h1zm-7 0 4 1v3l-4-3zm13 0-4 1v3l4-3zm-9 7 2.5 1 2.5-1-1-1h-3z" fill="#f4c53d"/><path d="m8 6h5v4l-2.5 1-2.5-1z" fill="#a60032"/><path d="m8 5h5v2h-5z" fill="#162667"/><path d="m9 7h1v3h-1zm2 0h1v3h-1z" fill="#fff"/><path d="m14 9h-1v1l2 1z" fill="#f4c53d"/></g><path d="m19 .5h-17c-.82843 0-1.5.67157-1.5 1.5v11c0 .8284.67157 1.5 1.5 1.5h17c.8284 0 1.5-.6716 1.5-1.5v-11c0-.82843-.6716-1.5-1.5-1.5z" stroke="#000" stroke-opacity=".1"/></g></svg>

<svg width="21" height="15" viewBox="0 0 21 15" fill="none" xmlns="http://www.w3.org/2000/svg">
<mask id="mask0_3_13" style="mask-type:alpha" maskUnits="userSpaceOnUse" x="0" y="0" width="21" height="15">
<path d="M19 0H2C0.89543 0 0 0.89543 0 2V13C0 14.1046 0.89543 15 2 15H19C20.1046 15 21 14.1046 21 13V2C21 0.89543 20.1046 0 19 0Z" fill="white"/>
</mask>
<g mask="url(#mask0_3_13)">
<path d="M19 0H2C0.89543 0 0 0.89543 0 2V13C0 14.1046 0.89543 15 2 15H19C20.1046 15 21 14.1046 21 13V2C21 0.89543 20.1046 0 19 0Z" fill="white"/>
<path fill-rule="evenodd" clip-rule="evenodd" d="M15.25 9L16 9.75L13.75 12L13 11.25L15.25 9Z" fill="#0081C6"/>
<path fill-rule="evenodd" clip-rule="evenodd" d="M6.75 9L6 9.75L8.25 12L9 11.25L6.75 9Z" fill="#369443"/>
<path fill-rule="evenodd" clip-rule="evenodd" d="M7 9H8V10L6 11L7 9Z" fill="#F4C53D"/>
<path fill-rule="evenodd" clip-rule="evenodd" d="M3 7H4V10H3V7ZM17 7H18V10H17V7Z" fill="#0081C6"/>
<path fill-rule="evenodd" clip-rule="evenodd" d="M11 4V3H9V4L10 5V7H11V4ZM4 4L8 5V8L4 5V4ZM17 4L13 5V8L17 5V4ZM8 11L10.5 12L13 11L12 10H9L8 11Z" fill="#F4C53D"/>
<path fill-rule="evenodd" clip-rule="evenodd" d="M8 6H13V10L10.5 11L8 10V6Z" fill="#A60032"/>
<path fill-rule="evenodd" clip-rule="evenodd" d="M8 5H13V7H8V5Z" fill="#162667"/>
<path fill-rule="evenodd" clip-rule="evenodd" d="M9 7H10V10H9V7ZM11 7H12V10H11V7Z" fill="white"/>
<path fill-rule="evenodd" clip-rule="evenodd" d="M14 9H13V10L15 11L14 9Z" fill="#F4C53D"/>
<path d="M19 0.5H2C1.17157 0.5 0.5 1.17157 0.5 2V13C0.5 13.8284 1.17157 14.5 2 14.5H19C19.8284 14.5 20.5 13.8284 20.5 13V2C20.5 1.17157 19.8284 0.5 19 0.5Z" stroke="black" stroke-opacity="0.1"/>
</g>
</svg>
